OFDR/img/documents/settings.svg

<svg width="67" height="67" viewBox="0 0 67 67" fill="none" xmlns="http://www.w3.org/2000/svg">
<g id="settings">
<path id="Shape" fill-rule="evenodd" clip-rule="evenodd" d="M28.999 39.501C28.999 33.1598 34.1579 28.001 40.499 28.001C46.8402 28.001 51.999 33.1598 51.999 39.501C51.999 45.8421 46.8402 51.001 40.499 51.001C34.1579 51.001 28.999 45.8421 28.999 39.501ZM31.6127 39.501C31.6127 44.401 35.599 48.3873 40.499 48.3873C45.3991 48.3873 49.3854 44.401 49.3854 39.501C49.3854 34.6009 45.3991 30.6146 40.499 30.6146C35.599 30.6146 31.6127 34.6009 31.6127 39.501Z" fill="#86ADEF"/>
<path id="Shape_2" fill-rule="evenodd" clip-rule="evenodd" d="M65.7185 58.5408L62.1822 55.0043C61.6791 54.5013 60.8629 54.5008 60.3593 55.0043C59.8558 55.5074 59.8558 56.3237 60.3593 56.8272L63.8957 60.3642C64.2346 60.7026 64.4209 61.1527 64.4209 61.6316C64.4209 62.1105 64.2346 62.5612 63.8957 62.8996C63.1968 63.5985 62.0593 63.599 61.3604 62.8996L51.4683 53.0072C55.2771 49.9325 57.7183 45.2278 57.7183 39.9631C57.7183 34.2644 54.8582 29.2213 50.499 26.1924V20.5551C50.499 19.8431 49.922 19.266 49.21 19.266H45.9541C45.4868 17.5423 44.8035 15.8942 43.9132 14.3448L46.2174 12.0405C46.7205 11.5369 46.7205 10.7207 46.2174 10.2171L40.2827 4.28271C39.7797 3.77915 38.9634 3.77915 38.4599 4.28271L36.1557 6.58698C34.6063 5.69669 32.9582 5.01337 31.2341 4.54607V1.29008C31.2341 0.578051 30.657 0.000976562 29.945 0.000976562H21.5525C20.841 0.000976562 20.2635 0.578051 20.2635 1.29008V4.53952C18.5368 5.00531 16.8852 5.68813 15.3333 6.57791L13.0382 4.28271C12.5351 3.77966 11.7189 3.77966 11.2153 4.28271L5.28113 10.2176C4.77759 10.7207 4.77759 11.5369 5.28113 12.0405L7.56972 14.3296C6.67493 15.8831 5.9886 17.5368 5.51981 19.266H2.28809C1.57608 19.266 0.999023 19.8431 0.999023 20.5551V28.9479C0.999023 29.6599 1.57608 30.237 2.28809 30.237H5.51326C5.98055 31.9697 6.66586 33.6264 7.56065 35.1829L5.28062 37.4625C4.77759 37.966 4.77759 38.7823 5.28062 39.2859L11.2153 45.2203C11.7184 45.7238 12.5346 45.7238 13.0382 45.2203L15.3177 42.9407C16.8746 43.835 18.5308 44.5208 20.2635 44.9876V48.2134C20.2635 48.9254 20.8405 49.5025 21.5525 49.5025H27.1907C30.2195 53.8618 35.2619 56.7215 40.9605 56.7215C43.9968 56.7215 46.8474 55.9092 49.3061 54.4917L59.5371 64.723C60.3891 65.575 61.5084 66.001 62.6278 66.001C63.7472 66.001 64.8665 65.575 65.7185 64.723C66.5443 63.8971 66.999 62.7994 66.999 61.6316C66.999 60.4644 66.5443 59.3661 65.7185 58.5408ZM22.8416 46.9243V43.975C22.8416 43.3682 22.4186 42.8435 21.8259 42.7151C19.6849 42.2508 17.6637 41.4144 15.8192 40.229C15.3091 39.9007 14.6399 39.9732 14.2109 40.4017L12.1268 42.4859L8.01535 38.3744L10.0995 36.2902C10.5285 35.8612 10.6 35.1914 10.2722 34.6813C9.08688 32.8368 8.2505 30.8161 7.78624 28.6749C7.65784 28.0817 7.13315 27.6588 6.52638 27.6588H3.57715V21.8442H6.53192C7.13768 21.8442 7.66187 21.4222 7.79128 20.83C8.25755 18.6919 9.09544 16.6742 10.2813 14.8322C10.6101 14.3221 10.5381 13.6519 10.1091 13.2228L8.01535 11.129L12.1268 7.01752L14.2255 9.11634C14.654 9.54486 15.3227 9.61687 15.8328 9.28956C17.6738 8.10923 19.6899 7.27584 21.8259 6.81257C22.4186 6.68416 22.8416 6.15946 22.8416 5.55267V2.57918H28.656V5.55821C28.656 6.16399 29.0784 6.68819 29.6706 6.81761C31.8031 7.28289 33.8167 8.11728 35.6542 9.29862C36.1647 9.62694 36.834 9.55493 37.263 9.1259L39.3713 7.01752L43.4827 11.129L41.3744 13.2374C40.9454 13.666 40.8734 14.3357 41.2012 14.8458C42.3825 16.6838 43.2173 18.697 43.6826 20.83C43.812 21.4222 44.3362 21.8442 44.942 21.8442H47.9209V24.72C45.8 23.7476 43.4424 23.2048 40.9605 23.2048C40.4076 23.2048 39.8607 23.2325 39.3209 23.2849C38.9846 20.1457 37.5822 17.2402 35.3007 15.0039C32.7311 12.4861 29.3347 11.0993 25.7369 11.0993C18.2025 11.0993 12.0729 17.2291 12.0729 24.7638C12.0729 31.8065 17.4285 37.6211 24.2807 38.3507C24.2298 38.8815 24.2027 39.4193 24.2027 39.9631C24.2027 42.4452 24.746 44.8028 25.7183 46.9243H22.8416ZM21.0006 24.7638C21.0006 27.3753 23.1256 29.4998 25.7369 29.4998C28.3483 29.4998 30.4727 27.3753 30.4727 24.7638C30.4727 22.1524 28.3483 20.0279 25.7369 20.0279C23.1256 20.0279 21.0006 22.1524 21.0006 24.7638ZM25.7369 17.4497C21.7036 17.4497 18.4225 20.7308 18.4225 24.7638C18.4225 28.7968 21.7036 32.078 25.7369 32.078C25.8875 32.078 26.0365 32.0719 26.1851 32.0629C25.5567 33.2336 25.0632 34.4865 24.7258 35.8018C19.0852 35.2891 14.651 30.5356 14.651 24.7638C14.651 18.6507 19.624 13.6775 25.7369 13.6775C31.4551 13.6775 36.2463 18.1219 36.772 23.7351C35.4578 24.0744 34.206 24.5699 33.0368 25.1999C33.0453 25.0559 33.0509 24.9104 33.0509 24.7638C33.0509 20.7308 29.7698 17.4497 25.7369 17.4497ZM40.9605 25.783C33.142 25.783 26.7808 32.1439 26.7808 39.9631C26.7808 47.7818 33.142 54.1433 40.9605 54.1433C48.7789 54.1433 55.1402 47.7818 55.1402 39.9631C55.1402 32.1439 48.7789 25.783 40.9605 25.783Z" fill="#86ADEF"/>
<path id="Path" d="M41.2718 34.001C40.5688 34.001 39.999 34.5708 39.999 35.2738C39.999 35.9768 40.5688 36.5466 41.2718 36.5466C43.0259 36.5466 44.4534 37.9736 44.4534 39.7282C44.4534 40.4307 45.0232 41.001 45.7262 41.001C46.4292 41.001 46.999 40.4307 46.999 39.7282C46.999 36.57 44.43 34.001 41.2718 34.001V34.001Z" fill="#86ADEF"/>
<path id="Path_2" d="M55.999 52.5016C55.999 52.8963 56.1578 53.2829 56.4385 53.5617C56.7174 53.8405 57.1047 54.001 57.499 54.001C57.8934 54.001 58.2807 53.8405 58.5596 53.5617C58.8385 53.2829 58.999 52.8963 58.999 52.5016C58.999 52.1056 58.8385 51.7191 58.5596 51.4403C58.2807 51.1615 57.8934 51.001 57.499 51.001C57.1047 51.001 56.7174 51.1609 56.4385 51.4403C56.1578 51.7191 55.999 52.1056 55.999 52.5016Z" fill="#86ADEF"/>
</g>
</svg>

<svg width="67" height="67" fill="none" xmlns="http://www.w3.org/2000/svg"><g fill="#86ADEF"><path fill-rule="evenodd" clip-rule="evenodd" d="M28.999 39.501c0-6.341 5.159-11.5 11.5-11.5s11.5 5.159 11.5 11.5-5.159 11.5-11.5 11.5-11.5-5.159-11.5-11.5zm2.614 0c0 4.9 3.986 8.886 8.886 8.886 4.9 0 8.886-3.986 8.886-8.886 0-4.9-3.986-8.886-8.886-8.886-4.9 0-8.886 3.986-8.886 8.886z"/><path fill-rule="evenodd" clip-rule="evenodd" d="M65.719 58.54l-3.537-3.536a1.29 1.29 0 00-1.823 1.823l3.537 3.537c.339.339.525.789.525 1.268s-.186.93-.525 1.268c-.7.699-1.837.699-2.536 0l-9.892-9.893c3.81-3.075 6.25-7.78 6.25-13.044 0-5.699-2.86-10.742-7.219-13.77v-5.638c0-.712-.577-1.289-1.289-1.289h-3.256a20.766 20.766 0 00-2.04-4.921l2.303-2.305a1.29 1.29 0 000-1.823l-5.934-5.934a1.289 1.289 0 00-1.823 0l-2.304 2.304a20.762 20.762 0 00-4.922-2.04V1.29c0-.712-.577-1.289-1.289-1.289h-8.393a1.29 1.29 0 00-1.288 1.29V4.54a20.773 20.773 0 00-4.93 2.038l-2.296-2.295a1.29 1.29 0 00-1.823 0l-5.934 5.935a1.289 1.289 0 000 1.822l2.289 2.29a20.753 20.753 0 00-2.05 4.936H2.288a1.29 1.29 0 00-1.289 1.29v8.392a1.29 1.29 0 001.29 1.289h3.224a20.743 20.743 0 002.048 4.946l-2.28 2.28a1.29 1.29 0 000 1.823l5.934 5.934c.503.504 1.32.504 1.823 0l2.28-2.28a20.748 20.748 0 004.946 2.048v3.225c0 .712.576 1.29 1.288 1.29h5.639c3.029 4.359 8.07 7.218 13.77 7.218a16.66 16.66 0 008.345-2.23l10.231 10.232a4.357 4.357 0 003.09 1.278 4.36 4.36 0 003.092-1.278 4.343 4.343 0 001.28-3.091 4.342 4.342 0 00-1.28-3.091zM22.842 46.925v-2.949c0-.607-.423-1.132-1.016-1.26a18.214 18.214 0 01-6.007-2.486 1.289 1.289 0 00-1.608.173l-2.084 2.084-4.112-4.112L10.1 36.29a1.29 1.29 0 00.172-1.609 18.211 18.211 0 01-2.486-6.006 1.289 1.289 0 00-1.26-1.016H3.577v-5.815h2.955a1.29 1.29 0 001.26-1.014 18.212 18.212 0 012.49-5.998 1.29 1.29 0 00-.173-1.61L8.015 11.13l4.112-4.111 2.098 2.098a1.29 1.29 0 001.608.174 18.224 18.224 0 015.993-2.477 1.289 1.289 0 001.016-1.26V2.579h5.814v2.98c0 .605.422 1.13 1.015 1.259 2.132.465 4.146 1.3 5.983 2.48.51.329 1.18.257 1.609-.172l2.108-2.108 4.112 4.111-2.109 2.108a1.289 1.289 0 00-.173 1.609 18.21 18.21 0 012.482 5.984 1.29 1.29 0 001.259 1.014h2.979v2.876a16.66 16.66 0 00-6.96-1.515c-.553 0-1.1.028-1.64.08a13.575 13.575 0 00-4.02-8.281 13.59 13.59 0 00-9.564-3.905c-7.534 0-13.664 6.13-13.664 13.665 0 7.043 5.355 12.857 12.208 13.587a16.666 16.666 0 001.438 8.574h-2.877zM21 24.764a4.742 4.742 0 004.736 4.736 4.741 4.741 0 004.736-4.736 4.741 4.741 0 00-4.736-4.736A4.742 4.742 0 0021 24.764zm4.736-7.314c-4.033 0-7.314 3.28-7.314 7.314 0 4.033 3.28 7.314 7.314 7.314.15 0 .3-.006.448-.015a16.65 16.65 0 00-1.46 3.739c-5.64-.513-10.074-5.266-10.074-11.038 0-6.113 4.973-11.086 11.086-11.086 5.718 0 10.51 4.444 11.035 10.057-1.314.34-2.566.835-3.735 1.465.008-.144.014-.29.014-.436 0-4.033-3.281-7.314-7.314-7.314zm15.224 8.333c-7.819 0-14.18 6.36-14.18 14.18 0 7.819 6.361 14.18 14.18 14.18 7.818 0 14.18-6.361 14.18-14.18 0-7.82-6.362-14.18-14.18-14.18z"/><path d="M41.272 34.001a1.273 1.273 0 100 2.546 3.185 3.185 0 013.181 3.181 1.273 1.273 0 002.546 0 5.733 5.733 0 00-5.727-5.727zm14.727 18.501a1.502 1.502 0 001.5 1.499c.394 0 .782-.16 1.06-.44a1.51 1.51 0 00.44-1.06c0-.395-.16-.782-.44-1.06A1.512 1.512 0 0057.5 51a1.503 1.503 0 00-1.5 1.5z"/></g></svg>
